images/btn-Close_Icon.svg

<svg width="42" height="42" viewBox="0 0 42 42" fill="none" xmlns="http://www.w3.org/2000/svg">
<path d="M41.1275 18.5171L23.0394 18.5171V0.428955L18.5173 0.428955V18.5171H0.429199L0.429199 23.0391H18.5173L18.5173 41.1272H23.0394L23.0394 23.0391L41.1275 23.0391V18.5171Z" fill="white"/>
</svg>

<svg width="42" height="42" fill="none" xmlns="http://www.w3.org/2000/svg"><path d="M41.127 18.517H23.04V.43h-4.522v18.088H.43v4.522h18.088v18.088h4.522V23.04h18.088v-4.522z" fill="#fff"/></svg>
